images/checkbox-active.svg

<svg width="22" height="23" viewBox="0 0 22 23" fill="none" xmlns="http://www.w3.org/2000/svg">
<g id="checkbox" clip-path="url(#clip0_7_2013)">
<path id="Rectangle 2701 (Stroke)" fill-rule="evenodd" clip-rule="evenodd" d="M0.653961 3.77606C0 5.05953 0 6.73969 0 10.1V12.9C0 16.2603 0 17.9405 0.653961 19.2239C1.2292 20.3529 2.14708 21.2708 3.27606 21.846C4.55953 22.5 6.23969 22.5 9.6 22.5H12.4C15.7603 22.5 17.4405 22.5 18.7239 21.846C19.8529 21.2708 20.7708 20.3529 21.346 19.2239C22 17.9405 22 16.2603 22 12.9V10.1C22 6.73969 22 5.05953 21.346 3.77606C20.7708 2.64708 19.8529 1.7292 18.7239 1.15396C17.4405 0.5 15.7603 0.5 12.4 0.5H9.6C6.23969 0.5 4.55953 0.5 3.27606 1.15396C2.14708 1.7292 1.2292 2.64708 0.653961 3.77606Z" fill="#CB11AB"/>
<path id="Path Copy 2 (Stroke)" fill-rule="evenodd" clip-rule="evenodd" d="M17.7354 7.17929L9.58662 15.9839L5.25781 11.1682L6.74523 9.83115L9.60819 13.0162L16.2676 5.8208L17.7354 7.17929Z" fill="white"/>
</g>
<defs>
<clipPath id="clip0_7_2013">
<rect width="22" height="22" fill="white" transform="translate(0 0.5)"/>
</clipPath>
</defs>
</svg>

<svg width="22" height="23" fill="none" xmlns="http://www.w3.org/2000/svg"><g clip-path="url(#a)" fill-rule="evenodd" clip-rule="evenodd"><path d="M.654 3.776C0 5.06 0 6.74 0 10.1v2.8c0 3.36 0 5.04.654 6.324a6 6 0 0 0 2.622 2.622C4.56 22.5 6.24 22.5 9.6 22.5h2.8c3.36 0 5.04 0 6.324-.654a6 6 0 0 0 2.622-2.622C22 17.94 22 16.26 22 12.9v-2.8c0-3.36 0-5.04-.654-6.324a6 6 0 0 0-2.622-2.622C17.44.5 15.76.5 12.4.5H9.6c-3.36 0-5.04 0-6.324.654A6 6 0 0 0 .654 3.776z" fill="#CB11AB"/><path d="m17.735 7.18-8.148 8.804-4.33-4.816 1.488-1.337 2.863 3.185 6.66-7.195 1.467 1.358z" fill="#fff"/></g><defs><clipPath id="a"><path fill="#fff" transform="translate(0 .5)" d="M0 0h22v22H0z"/></clipPath></defs></svg>
